icons/svg/backspace.svg

﻿<?xml version="1.0" encoding="utf-8"?>
<!DOCTYPE svg PUBLIC "-//W3C//DTD SVG 1.1//EN" "http://www.w3.org/Graphics/SVG/1.1/DTD/svg11.dtd">
<svg xmlns="http://www.w3.org/2000/svg" xmlns:xlink="http://www.w3.org/1999/xlink" version="1.1" baseProfile="full" width="24" height="24" viewBox="0 0 24.00 24.00" enable-background="new 0 0 24.00 24.00" xml:space="preserve">
	<path fill="#000000" fill-opacity="1" stroke-width="0.2" stroke-linejoin="round" d="M 22.0025,2.9978L 7.0025,2.9978C 6.30875,2.9978 5.77125,3.35 5.41,3.88125L 0,12.0025L 5.41,20.1125C 5.77125,20.64 6.30875,21.0012 7.0025,21.0012L 22.0025,21.0012C 23.1,21.0012 23.9987,20.0975 23.9987,18.9988L 23.9987,5C 23.9987,3.90125 23.1,2.9978 22.0025,2.9978 Z M 18.9988,15.5913L 17.5875,17.0025L 13.9987,13.4088L 10.41,17.0025L 8.99875,15.5913L 12.5875,12.0025L 8.99875,8.40875L 10.41,7.0025L 13.9987,10.5913L 17.5875,7.0025L 18.9988,8.40875L 15.41,12.0025"/>
</svg>

<svg xmlns="http://www.w3.org/2000/svg" version="1.1" baseProfile="full" width="24" height="24" viewBox="0 0 24.00 24.00" xml:space="preserve"><path fill="#000" fill-opacity="1" stroke-width=".2" stroke-linejoin="round" d="M22.003 2.998h-15c-.694 0-1.232.352-1.593.883L0 12.004l5.41 8.11c.36.527.9.888 1.593.888h15c1.097 0 1.996-.902 1.996-2V5c0-1.1-.9-2.002-1.997-2.002zM18.998 15.59l-1.413 1.413L14 13.41l-3.59 3.593L9 15.59l3.588-3.588-3.59-3.593 1.412-1.407L14 10.59l3.587-3.587L19 8.409 15.41 12"/></svg>
